other/nayto.svg

<?xml version="1.0" encoding="UTF-8" standalone="no"?>
<svg
   viewBox="0 0 48 48"
   version="1.1"
   id="svg8"
   sodipodi:docname="nayto.svg"
   inkscape:version="1.1 (c68e22c387, 2021-05-23)"
   xmlns:inkscape="http://www.inkscape.org/namespaces/inkscape"
   xmlns:sodipodi="http://sodipodi.sourceforge.net/DTD/sodipodi-0.dtd"
   xmlns="http://www.w3.org/2000/svg"
   xmlns:svg="http://www.w3.org/2000/svg">
  <sodipodi:namedview
     id="namedview10"
     pagecolor="#5c5c5c"
     bordercolor="#666666"
     borderopacity="1.0"
     inkscape:pageshadow="2"
     inkscape:pageopacity="0"
     inkscape:pagecheckerboard="true"
     showgrid="false"
     inkscape:zoom="31.375"
     inkscape:cx="28.717131"
     inkscape:cy="32.366534"
     inkscape:window-width="1271"
     inkscape:window-height="1003"
     inkscape:window-x="1800"
     inkscape:window-y="80"
     inkscape:window-maximized="0"
     inkscape:current-layer="svg8"
     inkscape:snap-smooth-nodes="true"
     inkscape:object-paths="true"
     inkscape:object-nodes="false"
     inkscape:snap-intersection-paths="false" />
  <defs
     id="defs4">
    <style
       id="style2">.a{fill:none;stroke:#fff;stroke-linecap:round;stroke-linejoin:round;}</style>
  </defs>
  <circle
     class="a"
     cx="24"
     cy="24"
     r="21.5"
     id="circle6" />
  <path
     style="font-variation-settings:normal;opacity:1;vector-effect:none;fill:none;fill-opacity:1;stroke:#ffffff;stroke-width:1;stroke-linecap:round;stroke-linejoin:round;stroke-miterlimit:4;stroke-dasharray:none;stroke-dashoffset:0;stroke-opacity:1;-inkscape-stroke:none;stop-color:#000000;stop-opacity:1"
     d="m 8.3762359,38.769834 c -2.237838,-11.798402 4.9443931,-5.260478 11.3847201,-3.391348 6.440327,1.86913 11.011289,1.911689 16.191235,-0.06375 -0.773899,0.870821 -2.761627,3.682565 -2.741035,6.247012 0.01281,1.595595 -3.572895,3.185782 -3.572895,3.185782"
     id="path1034"
     sodipodi:nodetypes="czcsc" />
  <path
     style="font-variation-settings:normal;opacity:1;vector-effect:none;fill:none;fill-opacity:1;stroke:#ffffff;stroke-width:1;stroke-linecap:round;stroke-linejoin:round;stroke-miterlimit:4;stroke-dasharray:none;stroke-dashoffset:0;stroke-opacity:1;-inkscape-stroke:none;stop-color:#000000;stop-opacity:1"
     d="m 17.880478,13.864542 -0.223105,5.832669 c -0.147106,3.845803 -9.0390675,5.13768 -9.6892456,-0.06375 L 7.6175299,16.828685"
     id="path2627"
     sodipodi:nodetypes="cssc" />
  <path
     style="font-variation-settings:normal;opacity:1;vector-effect:none;fill:none;fill-opacity:1;stroke:#ffffff;stroke-width:1;stroke-linecap:round;stroke-linejoin:round;stroke-miterlimit:4;stroke-dasharray:none;stroke-dashoffset:0;stroke-opacity:1;-inkscape-stroke:none;stop-color:#000000;stop-opacity:1"
     d="m 42.677291,15.011952 -0.127485,6.34263 c -0.06149,3.059199 -6.718088,3.03065 -6.693228,-0.350598 l 0.03187,-4.334661"
     id="path2629"
     sodipodi:nodetypes="cssc" />
  <path
     style="font-variation-settings:normal;opacity:1;vector-effect:none;fill:none;fill-opacity:1;stroke:#ffffff;stroke-width:1;stroke-linecap:round;stroke-linejoin:round;stroke-miterlimit:4;stroke-dasharray:none;stroke-dashoffset:0;stroke-opacity:1;-inkscape-stroke:none;stop-color:#000000;stop-opacity:1"
     d="M 39.057633,8.6534145 30.183267,18.804781 30.023904,16.031873 c -0.999362,1.415852 -1.651865,2.930808 -1.466135,4.685258 -6.156936,-3.054247 -10.148837,-8.11702 -9.275764,-17.6930821"
     id="path2631"
     sodipodi:nodetypes="ccccc" />
  <path
     style="font-variation-settings:normal;opacity:1;vector-effect:none;fill:none;fill-opacity:1;stroke:#ffffff;stroke-width:1;stroke-linecap:round;stroke-linejoin:round;stroke-miterlimit:4;stroke-dasharray:none;stroke-dashoffset:0;stroke-opacity:1;-inkscape-stroke:none;stop-color:#000000;stop-opacity:1"
     d="m 17.287063,3.5748566 c -1.990028,2.3258152 -3.09435,5.1331217 -2.912561,6.8155814 L 12.001939,6.1591331"
     id="path2633"
     sodipodi:nodetypes="ccc" />
  <path
     style="font-variation-settings:normal;opacity:1;vector-effect:none;fill:none;fill-opacity:1;stroke:#ffffff;stroke-width:1;stroke-linecap:round;stroke-linejoin:round;stroke-miterlimit:4;stroke-dasharray:none;stroke-dashoffset:0;stroke-opacity:1;-inkscape-stroke:none;stop-color:#000000;stop-opacity:1"
     d="m 2.8877609,19.935106 c 0.5868193,1.270833 1.8558649,2.200552 3.104271,3.140591 l -3.4726209,0.01091"
     id="path3561"
     sodipodi:nodetypes="ccc" />
  <path
     style="font-variation-settings:normal;opacity:1;vector-effect:none;fill:none;fill-opacity:1;stroke:#ffffff;stroke-width:1;stroke-linecap:round;stroke-linejoin:round;stroke-miterlimit:4;stroke-dasharray:none;stroke-dashoffset:0;stroke-opacity:1;-inkscape-stroke:none;stop-color:#000000;stop-opacity:1"
     d="m 4.2709164,18.039841 0.00973,-2.60706 M 4.7959193,14.332876 C 9.4899896,13.149572 16.063614,13.016865 17.880478,13.864542"
     id="path3729"
     sodipodi:nodetypes="cccc" />
  <path
     style="font-variation-settings:normal;opacity:1;vector-effect:none;fill:none;fill-opacity:1;stroke:#ffffff;stroke-width:1;stroke-linecap:round;stroke-linejoin:round;stroke-miterlimit:4;stroke-dasharray:none;stroke-dashoffset:0;stroke-opacity:1;-inkscape-stroke:none;stop-color:#000000;stop-opacity:1"
     d="M 42.677291,15.011952 C 41.16695,13.995939 38.15297,14.200203 35.792829,14.565737"
     id="path4391"
     sodipodi:nodetypes="cc" />
  <path
     style="font-variation-settings:normal;opacity:1;vector-effect:none;fill:none;fill-opacity:1;stroke:#ffffff;stroke-width:1;stroke-linecap:round;stroke-linejoin:round;stroke-miterlimit:4;stroke-dasharray:none;stroke-dashoffset:0;stroke-opacity:1;-inkscape-stroke:none;stop-color:#000000;stop-opacity:1"
     d="m 33.179283,27.314741 0.03187,1.306773"
     id="path4881" />
  <path
     style="font-variation-settings:normal;opacity:1;vector-effect:none;fill:none;fill-opacity:1;stroke:#ffffff;stroke-width:1;stroke-linecap:round;stroke-linejoin:round;stroke-miterlimit:4;stroke-dasharray:none;stroke-dashoffset:0;stroke-opacity:1;-inkscape-stroke:none;stop-color:#000000;stop-opacity:1"
     d="M 45.430803,22.27643 43.059761,24.191235 45.5,24.25498"
     id="path6083"
     sodipodi:nodetypes="ccc" />
</svg>

<svg xmlns="http://www.w3.org/2000/svg" viewBox="0 0 48 48"><defs><style>.a{fill:none;stroke:#fff;stroke-linecap:round;stroke-linejoin:round;}</style></defs><circle class="a" cx="24" cy="24" r="21.5"/><path class="a" d="M8.3762,38.77c-2.2378-11.7984,4.9444-5.26,11.3848-3.3913s11.0112,1.9117,16.1912-.0638c-.7739.8709-2.7616,3.6826-2.741,6.247.0128,1.5956-3.5729,3.1858-3.5729,3.1858"/><path class="a" d="M17.8805,13.8645l-.2231,5.8327c-.1471,3.8458-9.0391,5.1377-9.6893-.0637l-.3506-2.8048"/><path class="a" d="M42.6773,15.012,42.55,21.3546c-.0615,3.0592-6.7181,3.0306-6.6932-.3506l.0319-4.3347"/><path class="a" d="M39.0576,8.6534,30.1833,18.8048l-.1594-2.7729a6.75,6.75,0,0,0-1.4661,4.6852C22.4008,17.6629,18.4089,12.6,19.282,3.024"/><path class="a" d="M17.2871,3.5749c-1.99,2.3258-3.0944,5.1331-2.9126,6.8155L12.0019,6.1591"/><path class="a" d="M2.8878,19.9351A9.3628,9.3628,0,0,0,5.992,23.0757l-3.4726.0109"/><path class="a" d="M4.2709,18.04l.01-2.607m.5153-1.1c4.6941-1.1833,11.2677-1.316,13.0846-.4684"/><path class="a" d="M42.6773,15.012c-1.51-1.0161-4.5243-.8118-6.8845-.4463"/><path class="a" d="M33.1793,27.3147l.0319,1.3068"/><path class="a" d="M45.4308,22.2764,43.06,24.1912l2.44.0638"/></svg>
